X: 31142
T: Paddy Fahey's
R: reel
M: 4/4
K: Cmajor
G|~c2 cB cGEG|FADF EFGA|~_B2 BG c=Bcd|egdc BGAB|
~c2 cB cGEG|~F2 DF EFGA|~_B2 GA =BGFE|1 DG,A,B, ~C2 G:|2 DG,A,B, ~C2 CG||
~c2 ce g^fag|^fgec G=FEG|~F2 DF EFGA|Bcde fdBd|
cBce g^fag|^fgec G=FEG|FEDF EDCE|1 DG,A,B, ~C2 CG:|2 DG,A,B, ~C2 Cz||

